SF_Symbols/scope.svg

<?xml version="1.0" encoding="UTF-8"?>
<svg xmlns="http://www.w3.org/2000/svg" xmlns:xlink="http://www.w3.org/1999/xlink" width="24" height="24" viewBox="0 0 24 24" version="1.1">
<g id="surface1">
<path style=" stroke:none;fill-rule:nonzero;fill:rgb(100%,100%,100%);fill-opacity:1;" d="M 12 21.308594 C 13.21875 21.308594 14.363281 21.078125 15.429688 20.617188 C 16.5 20.160156 17.441406 19.523438 18.253906 18.710938 C 19.066406 17.894531 19.699219 16.949219 20.15625 15.882812 C 20.617188 14.804688 20.851562 13.660156 20.851562 12.441406 C 20.851562 11.222656 20.617188 10.078125 20.15625 9.007812 C 19.699219 7.933594 19.066406 6.992188 18.253906 6.179688 C 17.441406 5.359375 16.5 4.722656 15.429688 4.265625 C 14.363281 3.804688 13.21875 3.570312 12 3.570312 C 10.78125 3.570312 9.636719 3.804688 8.570312 4.265625 C 7.5 4.722656 6.558594 5.359375 5.746094 6.179688 C 4.933594 6.992188 4.296875 7.933594 3.835938 9.007812 C 3.378906 10.078125 3.148438 11.222656 3.148438 12.441406 C 3.148438 13.660156 3.378906 14.804688 3.835938 15.882812 C 4.296875 16.949219 4.933594 17.894531 5.746094 18.710938 C 6.558594 19.523438 7.5 20.160156 8.570312 20.617188 C 9.636719 21.078125 10.78125 21.308594 12 21.308594 Z M 12 19.78125 C 10.980469 19.78125 10.03125 19.59375 9.148438 19.21875 C 8.273438 18.84375 7.507812 18.320312 6.84375 17.652344 C 6.179688 16.984375 5.664062 16.207031 5.289062 15.320312 C 4.914062 14.425781 4.726562 13.464844 4.726562 12.441406 C 4.726562 11.414062 4.914062 10.460938 5.289062 9.570312 C 5.664062 8.683594 6.179688 7.90625 6.84375 7.238281 C 7.507812 6.5625 8.273438 6.039062 9.148438 5.664062 C 10.03125 5.289062 10.980469 5.101562 12 5.101562 C 13.019531 5.101562 13.964844 5.289062 14.839844 5.664062 C 15.722656 6.039062 16.492188 6.5625 17.15625 7.238281 C 17.820312 7.90625 18.335938 8.683594 18.710938 9.570312 C 19.085938 10.460938 19.273438 11.414062 19.273438 12.441406 C 19.273438 13.464844 19.085938 14.425781 18.710938 15.320312 C 18.335938 16.207031 17.820312 16.984375 17.15625 17.652344 C 16.492188 18.320312 15.722656 18.84375 14.839844 19.21875 C 13.964844 19.59375 13.019531 19.78125 12 19.78125 Z M 12 23.839844 C 12.1875 23.839844 12.34375 23.773438 12.46875 23.644531 C 12.601562 23.511719 12.664062 23.351562 12.664062 23.164062 L 12.664062 16.820312 C 12.664062 16.632812 12.601562 16.476562 12.46875 16.351562 C 12.34375 16.21875 12.1875 16.152344 12 16.152344 C 11.8125 16.152344 11.652344 16.21875 11.523438 16.351562 C 11.390625 16.476562 11.324219 16.632812 11.324219 16.820312 L 11.324219 23.164062 C 11.324219 23.351562 11.390625 23.511719 11.523438 23.644531 C 11.652344 23.773438 11.8125 23.839844 12 23.839844 Z M 1.273438 13.117188 L 7.621094 13.117188 C 7.808594 13.117188 7.96875 13.050781 8.101562 12.917969 C 8.230469 12.789062 8.296875 12.628906 8.296875 12.441406 C 8.296875 12.253906 8.230469 12.097656 8.101562 11.972656 C 7.96875 11.839844 7.808594 11.773438 7.621094 11.773438 L 1.273438 11.773438 C 1.085938 11.773438 0.929688 11.839844 0.796875 11.972656 C 0.664062 12.097656 0.601562 12.253906 0.601562 12.441406 C 0.601562 12.628906 0.664062 12.789062 0.796875 12.917969 C 0.929688 13.050781 1.085938 13.117188 1.273438 13.117188 Z M 12 8.738281 C 12.1875 8.738281 12.34375 8.671875 12.46875 8.539062 C 12.601562 8.410156 12.664062 8.25 12.664062 8.0625 L 12.664062 1.714844 C 12.664062 1.527344 12.601562 1.367188 12.46875 1.238281 C 12.34375 1.105469 12.1875 1.039062 12 1.039062 C 11.8125 1.039062 11.652344 1.105469 11.523438 1.238281 C 11.390625 1.367188 11.324219 1.527344 11.324219 1.714844 L 11.324219 8.0625 C 11.324219 8.25 11.390625 8.410156 11.523438 8.539062 C 11.652344 8.671875 11.8125 8.738281 12 8.738281 Z M 16.378906 13.117188 L 22.726562 13.117188 C 22.914062 13.117188 23.070312 13.050781 23.203125 12.917969 C 23.335938 12.789062 23.398438 12.628906 23.398438 12.441406 C 23.398438 12.253906 23.335938 12.097656 23.203125 11.972656 C 23.070312 11.839844 22.914062 11.773438 22.726562 11.773438 L 16.378906 11.773438 C 16.191406 11.773438 16.03125 11.839844 15.898438 11.972656 C 15.769531 12.097656 15.703125 12.253906 15.703125 12.441406 C 15.703125 12.628906 15.769531 12.789062 15.898438 12.917969 C 16.03125 13.050781 16.191406 13.117188 16.378906 13.117188 Z M 16.378906 13.117188 "/>
</g>
</svg>

<svg xmlns="http://www.w3.org/2000/svg" width="24" height="24"><path style="stroke:none;fill-rule:nonzero;fill:#fff;fill-opacity:1" d="M12 21.309c1.219 0 2.363-.23 3.43-.692a8.886 8.886 0 0 0 4.726-4.734 8.604 8.604 0 0 0 .696-3.442 8.58 8.58 0 0 0-.696-3.433 8.843 8.843 0 0 0-1.902-2.828 8.818 8.818 0 0 0-2.824-1.914A8.548 8.548 0 0 0 12 3.57a8.548 8.548 0 0 0-3.43.696A8.818 8.818 0 0 0 5.746 6.18a8.974 8.974 0 0 0-1.91 2.828 8.64 8.64 0 0 0-.688 3.433c0 1.22.23 2.364.688 3.442a9.107 9.107 0 0 0 1.91 2.828 8.902 8.902 0 0 0 2.824 1.906c1.067.461 2.211.692 3.43.692Zm0-1.528a7.211 7.211 0 0 1-2.852-.562 7.292 7.292 0 0 1-4.421-6.778 7.303 7.303 0 0 1 2.117-5.203 7.118 7.118 0 0 1 2.304-1.574A7.211 7.211 0 0 1 12 5.102c1.938-.02 3.8.753 5.156 2.136a7.303 7.303 0 0 1 2.117 5.203 7.344 7.344 0 0 1-.562 2.88 7.25 7.25 0 0 1-3.871 3.898 7.155 7.155 0 0 1-2.84.562Zm0 4.059a.625.625 0 0 0 .469-.195c.129-.125.199-.301.195-.48V16.82a.625.625 0 0 0-.195-.468.623.623 0 0 0-.469-.2.646.646 0 0 0-.477.2.615.615 0 0 0-.199.468v6.344c0 .188.067.348.2.48.128.13.289.196.476.196ZM1.273 13.117h6.348c.18.004.356-.07.48-.199a.643.643 0 0 0 .196-.477.625.625 0 0 0-.195-.468.649.649 0 0 0-.48-.2H1.272a.646.646 0 0 0-.476.2.611.611 0 0 0-.195.468c0 .188.062.348.195.477.133.133.289.2.476.2ZM12 8.738a.629.629 0 0 0 .469-.199.643.643 0 0 0 .195-.476V1.715a.643.643 0 0 0-.195-.477A.629.629 0 0 0 12 1.04a.646.646 0 0 0-.477.2.646.646 0 0 0-.199.476v6.348a.64.64 0 0 0 .2.476c.128.133.289.2.476.2Zm4.379 4.38h6.348c.18.003.351-.071.476-.2a.643.643 0 0 0 .195-.477.625.625 0 0 0-.195-.468.646.646 0 0 0-.476-.2h-6.348a.655.655 0 0 0-.48.2.625.625 0 0 0-.196.468c0 .188.067.348.195.477.133.133.293.2.48.2Zm0 0"/></svg>
